X: 49
T: Valvotun yön valssi
R: waltz
C: Arto Järvelä
M: 3/4
L: 1/8
K: Am
AB|: "Am"c2 {d}cB cd |"C" e2 g2 dc | "G"B2 {Bc}BA Bc | "Am"A4 E^G | AB c2 Ac| "D"de ^f2 {g}a2 |
"Em"e4 dc| "G"B4 ed | "Am"c2 B2 A2 | "Em"Ge e2 G2 | "Am"A3 B AG |1 A4  AB :|2 A4 e2||
"Am"ea a2 ab | "Em"g4 {Bc}BA | "G"GA BA Bc |"D" d3 e cB| 
"F"AB cB A2 | "Em"Ge eB G2 | "Am"A2 A"E"B AG |1 "Am"A4 "E"e2 :|2 "Am"A4 "E"AB ||

